svg/bottle.svg

<svg viewBox="0 0 20 20" xmlns="http://www.w3.org/2000/svg">
<rect width="100%" height="100%" fill="#28B09F"/>
<path d="M8.88512 6.64193C9.76483 5.17704 10.6496 3.69912 11.5393 2.22421C11.9596 1.52884 12.3518 1.43064 13.063 1.84947C14.1513 2.48973 15.2347 3.13701 16.318 3.78629C17.0994 4.25522 17.1817 4.61994 16.7062 5.40949C15.8426 6.84332 14.9819 8.28016 14.1102 9.73102C15.017 11.6288 15.0752 13.5325 14.045 15.3972C13.2445 16.8461 12.0057 17.7879 10.3978 18.2088C7.13774 19.0614 3.75833 16.9733 3.12036 13.774C2.39412 10.1248 5.03426 6.73411 8.88512 6.64193ZM9.17602 7.17598C6.3794 7.12087 4.3682 8.87934 3.73526 11.0216C3.07723 13.247 3.94691 15.6547 5.83974 16.9392C7.80981 18.2759 10.3346 18.1957 12.2214 16.7389C13.1192 16.0455 13.722 15.1507 14.044 14.0736C14.5014 12.5496 14.2717 11.0987 13.5023 9.74305C14.5315 8.01163 15.5406 6.31528 16.5889 4.5528C15.0983 3.66906 13.7361 2.86147 12.2886 2.00277C11.2243 3.77126 10.2042 5.46761 9.17602 7.17598Z" fill="white"/>
<path d="M9.60752 8.09077C9.44101 8.04167 9.28152 8.03967 9.10197 8.16091H9.10297C8.96254 8.37533 8.96956 8.57172 9.09595 8.76109C9.27951 8.91339 9.46408 8.90738 9.65668 8.8162C9.90043 8.55368 9.86532 8.31722 9.60752 8.09077Z" fill="white"/>
<path d="M12.2426 9.219C12.2366 9.6709 11.8665 10.0206 11.4051 10.0096C10.9497 9.99954 10.6066 9.63282 10.6196 9.16891C10.6317 8.70299 10.9838 8.37133 11.4552 8.38135C11.9176 8.39137 12.2497 8.74407 12.2426 9.218V9.219Z" fill="white"/>
<path d="M13.7011 11.6668C14.2057 12.9945 13.4132 15.1848 12.0842 16.2108C10.2324 17.6386 7.94841 17.7198 6.10473 16.4242C4.49377 15.292 3.66622 13.0937 4.23297 11.3502C4.45028 11.3743 4.67001 11.3985 4.89065 11.4229C5.20265 11.4573 5.51647 11.4919 5.82788 11.5266C6.35049 10.3963 6.56816 10.3192 7.74579 10.8362C8.0407 9.84925 8.5282 9.38433 9.25143 9.39936C9.97466 9.41439 10.417 9.85226 10.6858 10.8322C11.2245 10.7019 11.5736 10.9274 11.7602 11.4524C11.9888 11.4796 12.2197 11.4938 12.4501 11.508C12.8747 11.5342 13.2977 11.5603 13.7021 11.6668H13.7011Z" fill="white"/>
</svg>

<svg xmlns="http://www.w3.org/2000/svg" viewBox="0 0 20 20">
  <rect width="100%" height="100%" fill="#28B09F"/>
  <path fill="#fff" d="m8.89 6.64 2.65-4.42c.42-.7.81-.79 1.52-.37 1.1.64 2.17 1.29 3.26 1.94.78.47.86.83.39 1.62l-2.6 4.32a5.89 5.89 0 0 1-3.71 8.48 5.92 5.92 0 0 1-7.28-4.44 5.92 5.92 0 0 1 5.77-7.13Zm.29.54a5.35 5.35 0 0 0-3.34 9.76 5.39 5.39 0 0 0 7.66-7.2l3.09-5.19L12.29 2 9.18 7.18Z"/>
  <path fill="#fff" d="M9.6 8.1a.55.55 0 0 0-.5.06c-.14.22-.13.41 0 .6.18.15.36.15.56.06.24-.27.2-.5-.05-.73ZM12.24 9.22a.8.8 0 0 1-.83.79.8.8 0 0 1-.79-.84c.01-.47.36-.8.84-.79.46.01.79.36.78.84ZM13.7 11.67c.5 1.32-.29 3.51-1.62 4.54a4.9 4.9 0 0 1-5.98.21c-1.6-1.13-2.43-3.33-1.87-5.07l.66.07.94.1c.52-1.12.74-1.2 1.92-.68.3-1 .78-1.46 1.5-1.44.72.01 1.17.45 1.44 1.43.53-.13.88.1 1.07.62l.69.06c.42.02.85.05 1.25.16Z"/>
</svg>
